images/large/logo-full.svg

<?xml version="1.0" encoding="UTF-8"?>
<svg width="173px" height="74px" viewBox="0 0 173 74" version="1.1" xmlns="http://www.w3.org/2000/svg" xmlns:xlink="http://www.w3.org/1999/xlink">
    <!-- Generator: Sketch 52.3 (67297) - http://www.bohemiancoding.com/sketch -->
    <title>Group</title>
    <desc>Created with Sketch.</desc>
    <defs>
        <path d="M90.244,5.052 L90.244,30 L84.34,30 L84.34,5.052 L90.244,5.052 Z M101.792,5.052 L101.792,30 L95.888,30 L95.888,5.052 L101.792,5.052 Z M116.12,5.052 L108.164,16.248 L116.768,30 L109.928,30 L101.972,16.68 L109.892,5.052 L116.12,5.052 Z M144.444,30 L138.648,30 L138.216,20.244 C138.095999,17.9159884 138.036,15.8400091 138.036,14.016 C138.036,12.623993 138.072,11.3040062 138.144,10.056 L134.292,27.372 L128.712,27.372 L124.608,10.056 C124.752001,12.1440104 124.824,14.1119908 124.824,15.96 C124.824,17.352007 124.788,18.8039924 124.716,20.316 L124.284,30 L118.524,30 L120.396,5.052 L127.848,5.052 L131.592,21.972 L135.084,5.052 L142.572,5.052 L144.444,30 Z M158.692,4.44 C162.244018,4.44 165.00999,5.5799886 166.99,7.86 C168.97001,10.1400114 169.96,13.3559792 169.96,17.508 C169.96,20.2200136 169.510004,22.5599902 168.61,24.528 C167.709995,26.4960098 166.414008,28.0019948 164.722,29.046 C163.029992,30.0900052 161.020012,30.612 158.692,30.612 C156.363988,30.612 154.360008,30.0960052 152.68,29.064 C150.999992,28.0319948 149.710004,26.5380098 148.81,24.582 C147.909995,22.6259902 147.46,20.2680138 147.46,17.508 C147.46,14.8199866 147.909995,12.4920098 148.81,10.524 C149.710004,8.55599016 150.999992,7.05000522 152.68,6.006 C154.360008,4.96199478 156.363988,4.44 158.692,4.44 Z M158.692,8.76 C156.987991,8.76 155.722004,9.4499931 154.894,10.83 C154.065996,12.2100069 153.652,14.4359846 153.652,17.508 C153.652,20.5800154 154.071996,22.811993 154.912,24.204 C155.752004,25.596007 157.011992,26.292 158.692,26.292 C160.420009,26.292 161.697996,25.6020069 162.526,24.222 C163.354004,22.8419931 163.768,20.6040155 163.768,17.508 C163.768,14.4119845 163.348004,12.1800068 162.508,10.812 C161.667996,9.44399316 160.396009,8.76 158.692,8.76 Z M98.812,66 L96.94,59.772 L87.544,59.772 L85.672,66 L82.216,66 L90.172,41.196 L94.492,41.196 L102.412,66 L98.812,66 Z M88.372,57 L96.112,57 L92.26,44.04 L88.372,57 Z M116.624,65.136 C115.375994,66.0000043 113.960008,66.432 112.376,66.432 C110.767992,66.432 109.514004,65.9700046 108.614,65.046 C107.713995,64.1219954 107.264,62.7840088 107.264,61.032 L107.264,49.584 L103.952,49.584 L103.952,47.028 L107.264,47.028 L107.264,42.744 L110.576,42.348 L110.576,47.028 L115.076,47.028 L114.716,49.584 L110.576,49.584 L110.576,60.888 C110.576,61.8720049 110.749998,62.5859978 111.098,63.03 C111.446002,63.4740022 112.027996,63.696 112.844,63.696 C113.588004,63.696 114.427995,63.4440025 115.364,62.94 L116.624,65.136 Z M124.464,66.432 C123.239994,66.432 122.274004,66.0660037 121.566,65.334 C120.857996,64.6019963 120.504,63.5760066 120.504,62.256 L120.504,39.396 L123.816,39 L123.816,62.184 C123.816,62.7120026 123.905999,63.0959988 124.086,63.336 C124.266001,63.5760012 124.571998,63.696 125.004,63.696 C125.460002,63.696 125.867998,63.6240007 126.228,63.48 L127.092,65.784 C126.299996,66.2160022 125.424005,66.432 124.464,66.432 Z M144.832,61.572 C144.832,62.3400038 144.963999,62.9099981 145.228,63.282 C145.492001,63.6540019 145.887997,63.935999 146.416,64.128 L145.66,66.432 C144.675995,66.3119994 143.884003,66.0360022 143.284,65.604 C142.683997,65.1719978 142.240001,64.5000046 141.952,63.588 C140.679994,65.4840095 138.796012,66.432 136.3,66.432 C134.427991,66.432 132.952005,65.9040053 131.872,64.848 C130.791995,63.7919947 130.252,62.4120085 130.252,60.708 C130.252,58.6919899 130.977993,57.1440054 132.43,56.064 C133.882007,54.9839946 135.939987,54.444 138.604,54.444 L141.52,54.444 L141.52,53.04 C141.52,51.6959933 141.196003,50.7360029 140.548,50.16 C139.899997,49.5839971 138.904007,49.296 137.56,49.296 C136.167993,49.296 134.46401,49.6319966 132.448,50.304 L131.62,47.892 C133.972012,47.0279957 136.15599,46.596 138.172,46.596 C140.404011,46.596 142.071994,47.1419945 143.176,48.234 C144.280006,49.3260055 144.832,50.8799899 144.832,52.896 L144.832,61.572 Z M137.056,63.948 C138.952009,63.948 140.439995,62.9640098 141.52,60.996 L141.52,56.64 L139.036,56.64 C135.531982,56.64 133.78,57.935987 133.78,60.528 C133.78,61.6560056 134.055997,62.5079971 134.608,63.084 C135.160003,63.6600029 135.975995,63.948 137.056,63.948 Z M157.424,46.596 C158.720006,46.596 159.883995,46.7759982 160.916,47.136 C161.948005,47.4960018 162.931995,48.0359964 163.868,48.756 L162.464,50.844 C161.599996,50.2919972 160.778004,49.8840013 159.998,49.62 C159.217996,49.3559987 158.396004,49.224 157.532,49.224 C156.451995,49.224 155.600003,49.4459978 154.976,49.89 C154.351997,50.3340022 154.04,50.9399962 154.04,51.708 C154.04,52.4760038 154.333997,53.0759978 154.922,53.508 C155.510003,53.9400022 156.571992,54.359998 158.108,54.768 C160.220011,55.2960026 161.797995,56.0159954 162.842,56.928 C163.886005,57.8400046 164.408,59.0879921 164.408,60.672 C164.408,62.5440094 163.682007,63.9719951 162.23,64.956 C160.777993,65.9400049 159.00801,66.432 156.92,66.432 C154.039986,66.432 151.652009,65.6040083 149.756,63.948 L151.52,61.932 C153.128008,63.1560061 154.90399,63.768 156.848,63.768 C158.096006,63.768 159.085996,63.5100026 159.818,62.994 C160.550004,62.4779974 160.916,61.7760044 160.916,60.888 C160.916,60.2399968 160.784001,59.718002 160.52,59.322 C160.255999,58.925998 159.800003,58.5780015 159.152,58.278 C158.503997,57.9779985 157.556006,57.6600017 156.308,57.324 C154.29199,56.7959974 152.834004,56.0880044 151.934,55.2 C151.033995,54.3119956 150.584,53.1840068 150.584,51.816 C150.584,50.8319951 150.877997,49.938004 151.466,49.134 C152.054003,48.329996 152.869995,47.7060022 153.914,47.262 C154.958005,46.8179978 156.127994,46.596 157.424,46.596 Z" id="path-1"></path>
        <polygon id="path-2" points="0.0496958904 0.412722222 32.8842488 0.412722222 32.8842488 52.0493267 0.0496958904 52.0493267"></polygon>
        <polygon id="path-4" points="0.26720999 0.368097222 48.5676027 0.368097222 48.5676027 47.6944444 0.26720999 47.6944444"></polygon>
        <polygon id="path-6" points="0.233167854 0.182088889 51.2105205 0.182088889 51.2105205 42.2336894 0.233167854 42.2336894"></polygon>
    </defs>
    <g id="Symbole" stroke="none" stroke-width="1" fill="none" fill-rule="evenodd">
        <g id="48em/Header/Header.normal" transform="translate(-531.000000, -71.000000)">
            <g id="Group" transform="translate(534.000000, 73.000000)">
                <g id="Group-2">
                    <g id="IKMO-Atlas" fill="#FFFFFF">
                        <use xlink:href="#path-1"></use>
                        <use xlink:href="#path-1"></use>
                    </g>
                    <g id="IKMO-Logo">
                        <g id="Group-14">
                            <path d="M0.224819178,27.9064917 C11.1956411,5.77579722 34.1568192,6.36040833 46.438737,20.3037139 C51.5946274,26.1564361 51.5587644,30.2860194 51.3780521,38.9385472 C52.3058329,34.4859639 57.7379151,27.2009917 51.3831753,15.4964917 C48.1522438,9.54601944 42.6088466,4.31568611 33.8387096,2.592075 C16.5629836,-0.803675 1.96953151,13.8564639 0.224819178,27.9064917" id="Fill-1" fill="#BC287E"></path>
                            <g id="Group-5" transform="translate(31.671233, 0.059500)">
                                <mask id="mask-3" fill="white">
                                    <use xlink:href="#path-2"></use>
                                </mask>
                                <g id="Clip-4"></g>
                                <path d="M4.37049041,51.9247528 C20.9997507,53.4651417 34.3887644,40.5191694 32.7479151,24.2246694 C31.3138603,9.98339167 16.6635863,-0.719997222 0.0496958904,0.508725 L2.10879178,1.42861389 C8.12865479,3.38503056 9.95580548,3.11255833 15.6910932,8.54736389 C28.6143534,20.793975 26.1514493,44.0485583 6.82035342,50.8518639 L4.37049041,51.9247528 Z" id="Fill-3" fill="#1B79B2" mask="url(#mask-3)"></path>
                            </g>
                            <path d="M17.1366521,63.1584944 C7.09826849,54.0375222 3.81983014,41.7776889 10.6505699,29.7237444 C13.459063,24.7673 16.8879397,21.3691889 22.7564329,18.7573278 C30.9117753,15.1283 34.5847068,16.3178278 42.566789,18.4064667 C36.7439397,10.5723 13.5838849,6.17827222 3.08067945,24.7281056 C-5.88274521,40.5588833 6.5281863,58.8829944 17.1366521,63.1584944" id="Fill-6" fill="#E9B52A"></path>
                            <g id="Group-10" transform="translate(7.917808, 19.892833)">
                                <mask id="mask-5" fill="white">
                                    <use xlink:href="#path-4"></use>
                                </mask>
                                <g id="Clip-9"></g>
                                <path d="M48.5676027,39.0530139 C41.665137,41.3824861 38.4570274,44.3055417 28.7567808,42.3056806 C3.24373973,37.0455972 3.92420548,6.32376389 14.6644795,0.368097222 C8.8160137,2.43643056 3.1650274,8.98095833 1.16973973,16.0964028 C-3.17806849,31.6004028 8.61760274,48.226875 27.1979041,47.6814583 C35.4706164,47.4387361 44.8895479,43.513625 48.5676027,39.0530139" id="Fill-8" fill="#02A86B" mask="url(#mask-5)"></path>
                            </g>
                            <g id="Group-13" transform="translate(16.767123, 19.420611)">
                                <mask id="mask-7" fill="white">
                                    <use xlink:href="#path-6"></use>
                                </mask>
                                <g id="Clip-12"></g>
                                <path d="M0.257934247,20.6774778 C-0.538969863,33.1460333 18.0338795,47.8255333 35.9779616,40.0758944 C50.0423178,34.0017 55.1446466,16.8605056 47.9934685,0.182088889 C48.6813863,8.85397778 49.9435781,11.6556722 45.8421534,19.6820333 C34.2425644,42.3812833 2.49913973,33.4662 0.257934247,20.6774778" id="Fill-11" fill="#E5712A" mask="url(#mask-7)"></path>
                            </g>
                        </g>
                    </g>
                </g>
            </g>
        </g>
    </g>
</svg>

<svg width="173" height="74" viewBox="0 0 173 74" xmlns="http://www.w3.org/2000/svg" xmlns:xlink="http://www.w3.org/1999/xlink">
	<defs>
		<path id="a" d="M90.244 5.052V30H84.34V5.052h5.904zm11.548 0V30h-5.904V5.052h5.904zm14.328 0l-7.956 11.196L116.768 30h-6.84l-7.956-13.32 7.92-11.628h6.228zM144.444 30h-5.796l-.432-9.756c-.12-2.328-.18-4.404-.18-6.228 0-1.392.036-2.712.108-3.96l-3.852 17.316h-5.58l-4.104-17.316c.144 2.088.216 4.056.216 5.904a91.69 91.69 0 0 1-.108 4.356L124.284 30h-5.76l1.872-24.948h7.452l3.744 16.92 3.492-16.92h7.488L144.444 30zm14.248-25.56c3.552 0 6.318 1.14 8.298 3.42 1.98 2.28 2.97 5.496 2.97 9.648 0 2.712-.45 5.052-1.35 7.02-.9 1.968-2.196 3.474-3.888 4.518-1.692 1.044-3.702 1.566-6.03 1.566-2.328 0-4.332-.516-6.012-1.548-1.68-1.032-2.97-2.526-3.87-4.482-.9-1.956-1.35-4.314-1.35-7.074 0-2.688.45-5.016 1.35-6.984.9-1.968 2.19-3.474 3.87-4.518 1.68-1.044 3.684-1.566 6.012-1.566zm0 4.32c-1.704 0-2.97.69-3.798 2.07-.828 1.38-1.242 3.606-1.242 6.678s.42 5.304 1.26 6.696c.84 1.392 2.1 2.088 3.78 2.088 1.728 0 3.006-.69 3.834-2.07.828-1.38 1.242-3.618 1.242-6.714 0-3.096-.42-5.328-1.26-6.696-.84-1.368-2.112-2.052-3.816-2.052zM98.812 66l-1.872-6.228h-9.396L85.672 66h-3.456l7.956-24.804h4.32L102.412 66h-3.6zm-10.44-9h7.74L92.26 44.04 88.372 57zm28.252 8.136c-1.248.864-2.664 1.296-4.248 1.296-1.608 0-2.862-.462-3.762-1.386-.9-.924-1.35-2.262-1.35-4.014V49.584h-3.312v-2.556h3.312v-4.284l3.312-.396v4.68h4.5l-.36 2.556h-4.14v11.304c0 .984.174 1.698.522 2.142.348.444.93.666 1.746.666.744 0 1.584-.252 2.52-.756l1.26 2.196zm7.84 1.296c-1.224 0-2.19-.366-2.898-1.098-.708-.732-1.062-1.758-1.062-3.078v-22.86l3.312-.396v23.184c0 .528.09.912.27 1.152.18.24.486.36.918.36.456 0 .864-.072 1.224-.216l.864 2.304c-.792.432-1.668.648-2.628.648zm20.368-4.86c0 .768.132 1.338.396 1.71.264.372.66.654 1.188.846l-.756 2.304c-.984-.12-1.776-.396-2.376-.828-.6-.432-1.044-1.104-1.332-2.016-1.272 1.896-3.156 2.844-5.652 2.844-1.872 0-3.348-.528-4.428-1.584s-1.62-2.436-1.62-4.14c0-2.016.726-3.564 2.178-4.644s3.51-1.62 6.174-1.62h2.916V53.04c0-1.344-.324-2.304-.972-2.88-.648-.576-1.644-.864-2.988-.864-1.392 0-3.096.336-5.112 1.008l-.828-2.412c2.352-.864 4.536-1.296 6.552-1.296 2.232 0 3.9.546 5.004 1.638 1.104 1.092 1.656 2.646 1.656 4.662v8.676zm-7.776 2.376c1.896 0 3.384-.984 4.464-2.952V56.64h-2.484c-3.504 0-5.256 1.296-5.256 3.888 0 1.128.276 1.98.828 2.556.552.576 1.368.864 2.448.864zm20.368-17.352c1.296 0 2.46.18 3.492.54 1.032.36 2.016.9 2.952 1.62l-1.404 2.088c-.864-.552-1.686-.96-2.466-1.224a7.64 7.64 0 0 0-2.466-.396c-1.08 0-1.932.222-2.556.666-.624.444-.936 1.05-.936 1.818s.294 1.368.882 1.8c.588.432 1.65.852 3.186 1.26 2.112.528 3.69 1.248 4.734 2.16 1.044.912 1.566 2.16 1.566 3.744 0 1.872-.726 3.3-2.178 4.284s-3.222 1.476-5.31 1.476c-2.88 0-5.268-.828-7.164-2.484l1.764-2.016c1.608 1.224 3.384 1.836 5.328 1.836 1.248 0 2.238-.258 2.97-.774.732-.516 1.098-1.218 1.098-2.106 0-.648-.132-1.17-.396-1.566-.264-.396-.72-.744-1.368-1.044-.648-.3-1.596-.618-2.844-.954-2.016-.528-3.474-1.236-4.374-2.124-.9-.888-1.35-2.016-1.35-3.384 0-.984.294-1.878.882-2.682.588-.804 1.404-1.428 2.448-1.872 1.044-.444 2.214-.666 3.51-.666z"/>
		<path id="b" d="M.05.413h32.834v51.636H.05z"/>
		<path id="d" d="M.267.368h48.3v47.326H.268z"/>
		<path id="f" d="M.233.182h50.978v42.052H.233z"/>

         <filter id="shadow" x="-50%" y="-50%" width="200%" height="200%">
            <feOffset result="offOut" in="SourceAlpha" dx="0" dy="2" />
            <feGaussianBlur result="blurOut" in="offOut" stdDeviation="1" />
            <feBlend in="SourceGraphic" in2="blurOut" mode="normal" />
          	
          	<feComponentTransfer><feFuncA type="linear" slope="0.32"/></feComponentTransfer>
	       
	      	<feMerge><feMergeNode/>
	    	
	    	<feMergeNode in="SourceGraphic"/></feMerge>
      
        </filter>

	</defs>

	<g fill="#FFF" transform="translate(3 2)">
		<use xlink:href="#a"/>
	</g>
	
	<g filter="url(#shadow)">

		<path d="M3.225 29.906c10.97-22.13 33.932-21.546 46.214-7.602 5.156 5.852 5.12 9.982 4.94 18.635.927-4.453 6.359-11.738.004-23.443-3.23-5.95-8.774-11.18-17.544-12.904C19.563 1.196 4.969 15.856 3.225 29.906" fill="#BC287E"/>
		
		<g transform="translate(34.671 2.06)">
			<mask id="c" fill="#fff">
				<use xlink:href="#b"/>
			</mask>
			<path d="M4.37 51.925c16.63 1.54 30.019-11.406 28.378-27.7C31.314 9.983 16.664-.72.05.509l2.059.92c6.02 1.956 7.847 1.684 13.582 7.118 12.923 12.247 10.46 35.502-8.87 42.305l-2.45 1.073z" fill="#1B79B2" mask="url(#c)"/>
		</g>

		<path d="M20.137 65.158c-10.039-9.12-13.317-21.38-6.486-33.434 2.808-4.957 6.237-8.355 12.105-10.967 8.156-3.629 11.829-2.44 19.81-.35-5.822-7.835-28.982-12.229-39.485 6.321-8.964 15.83 3.447 34.155 14.056 38.43" fill="#E9B52A"/>

		<g transform="translate(10.918 21.893)">
			<mask id="e" fill="#fff">
				<use xlink:href="#d"/>
			</mask>

			<path d="M48.568 39.053c-6.903 2.33-10.111 5.253-19.811 3.253C3.244 37.046 3.924 6.324 14.664.368 8.816 2.436 3.165 8.981 1.17 16.096-3.178 31.6 8.618 48.226 27.198 47.681c8.273-.242 17.692-4.167 21.37-8.628" fill="#02A86B" mask="url(#e)"/>
		</g>

		<g transform="translate(19.767 21.42)">
			<mask id="g" fill="#fff">
				<use xlink:href="#f"/>
			</mask>
			<path d="M.258 20.677c-.797 12.469 17.776 27.149 35.72 19.399C50.042 34.002 55.145 16.86 47.993.182c.688 8.672 1.95 11.474-2.15 19.5-11.6 22.7-43.344 13.784-45.585.995" fill="#E5712A" mask="url(#g)"/>
		</g>
	</g>

</svg>
